packages/icons/svg/Outline/hard-drive.svg

<svg fill="none" height="24" viewBox="0 0 24 24" width="24" xmlns="http://www.w3.org/2000/svg"><path clip-rule="evenodd" d="m6.99998 16c0-.55.45-1 1-1s1 .45 1 1-.45 1-1 1-1-.45-1-1zm5.00002-1h4c.55 0 1 .45 1 1s-.45 1-1 1h-4c-.55 0-1-.45-1-1s.45-1 1-1zm6 3.9999h-11.99998c-.551 0-1-.448-1-1v-5h13.99998v5c0 .552-.449 1-1 1zm-9.65799-13.44683c.17-.341.513-.553.894-.553h5.52799c.381 0 .724.212.894.553l2.724 5.44703h-12.76399zm12.44699 5.78893-3.342-6.684c-.511-1.022-1.539-1.658-2.683-1.658h-5.528c-1.144 0-2.172.636-2.683 1.658l-3.342 6.684c-.138.276-.211.586-.211.894v5.764c0 1.654 1.346 3 3 3h12c1.654 0 3-1.346 3-3v-5.764c0-.308-.073-.618-.211-.894z" fill="#6b7280" fill-rule="evenodd"/></svg>

<svg width="24" height="24" viewBox="0 0 24 24" fill="none" xmlns="http://www.w3.org/2000/svg">
<g id="Icon/Outline/hard-drive">
<path id="Mask" fill-rule="evenodd" clip-rule="evenodd" d="M7 16C7 15.45 7.45 15 8 15C8.55 15 9 15.45 9 16C9 16.55 8.55 17 8 17C7.45 17 7 16.55 7 16ZM12 15H16C16.55 15 17 15.45 17 16C17 16.55 16.55 17 16 17H12C11.45 17 11 16.55 11 16C11 15.45 11.45 15 12 15ZM18 19H6C5.449 19 5 18.552 5 18V13H19V18C19 18.552 18.551 19 18 19ZM8.342 5.553C8.512 5.212 8.855 5 9.236 5H14.764C15.145 5 15.488 5.212 15.658 5.553L18.382 11H5.618L8.342 5.553ZM20.789 11.342L17.447 4.658C16.936 3.636 15.908 3 14.764 3H9.236C8.092 3 7.064 3.636 6.553 4.658L3.211 11.342C3.073 11.618 3 11.928 3 12.236V18C3 19.654 4.346 21 6 21H18C19.654 21 21 19.654 21 18V12.236C21 11.928 20.927 11.618 20.789 11.342Z" fill="#000000"/>
</g>
</svg>
